Dominus_Funeral/22/apps/pyrenamer.svg

<svg xmlns="http://www.w3.org/2000/svg" width="24" height="24" viewBox="0 0 6.35 6.35"><defs><linearGradient id="a"><stop offset="0" stop-color="#abc837"/><stop offset="1" stop-color="#217844"/></linearGradient></defs><path d="M5.57.38l-.88.89C2.91-.55-.33.58.51 3.49c.2.68.87.4.78-.08-.32-1.65 1.02-2 2.09-.83l-.95.96 3.36.14zM4.4 4.03v1.92h.82c.25 0 .45-.04.57-.13.12-.1.19-.23.19-.42a.52.52 0 0 0-.09-.3.44.44 0 0 0-.25-.18.43.43 0 0 0 .2-.14.42.42 0 0 0 .06-.24c0-.17-.07-.3-.18-.38-.12-.08-.31-.13-.58-.13zm-2.38.02l-.7 1.92h.5l.12-.36h.77l.12.36h.5L2.6 4.05zm2.88.32h.27c.08 0 .13.02.17.05.04.03.07.08.07.15a.2.2 0 0 1-.06.15.28.28 0 0 1-.18.05h-.28zm-2.57.13l.25.75h-.52zm2.57.61h.29c.09 0 .16.02.22.07.05.04.08.1.08.18 0 .09-.03.15-.08.19a.34.34 0 0 1-.22.06h-.3z" fill="#1a1a1a"/></svg>

<?xml version="1.0" encoding="UTF-8" standalone="no"?>
<svg
   xmlns:dc="http://purl.org/dc/elements/1.1/"
   xmlns:cc="http://creativecommons.org/ns#"
   xmlns:rdf="http://www.w3.org/1999/02/22-rdf-syntax-ns#"
   xmlns:svg="http://www.w3.org/2000/svg"
   xmlns="http://www.w3.org/2000/svg"
   xmlns:sodipodi="http://sodipodi.sourceforge.net/DTD/sodipodi-0.dtd"
   xmlns:inkscape="http://www.inkscape.org/namespaces/inkscape"
   width="24"
   height="24"
   viewBox="0 0 6.35 6.35"
   version="1.1"
   id="svg11"
   sodipodi:docname="pyrenamer.svg"
   inkscape:version="0.92.4 (5da689c313, 2019-01-14)">
  <metadata
     id="metadata15">
    <rdf:RDF>
      <cc:Work
         rdf:about="">
        <dc:format>image/svg+xml</dc:format>
        <dc:type
           rdf:resource="http://purl.org/dc/dcmitype/StillImage" />
        <dc:title></dc:title>
      </cc:Work>
    </rdf:RDF>
  </metadata>
  <sodipodi:namedview
     pagecolor="#ffffff"
     bordercolor="#666666"
     borderopacity="1"
     objecttolerance="10"
     gridtolerance="10"
     guidetolerance="10"
     inkscape:pageopacity="0"
     inkscape:pageshadow="2"
     inkscape:window-width="1138"
     inkscape:window-height="480"
     id="namedview13"
     showgrid="false"
     inkscape:zoom="9.8333333"
     inkscape:cx="1.0677966"
     inkscape:cy="12"
     inkscape:window-x="0"
     inkscape:window-y="25"
     inkscape:window-maximized="0"
     inkscape:current-layer="svg11" />
  <defs
     id="defs7">
    <linearGradient
       id="a">
      <stop
         offset="0"
         stop-color="#abc837"
         id="stop2" />
      <stop
         offset="1"
         stop-color="#217844"
         id="stop4" />
    </linearGradient>
  </defs>
  <path
     d="M 5.57,0.38 4.69,1.27 C 2.91,-0.55 -0.33,0.58 0.51,3.49 0.71,4.17 1.38,3.89 1.29,3.41 0.97,1.76 2.31,1.41 3.38,2.58 L 2.43,3.54 5.79,3.68 Z M 4.4,4.03 V 5.95 H 5.22 C 5.47,5.95 5.67,5.91 5.79,5.82 5.91,5.72 5.98,5.59 5.98,5.4 A 0.52,0.52 0 0 0 5.89,5.1 0.44,0.44 0 0 0 5.64,4.92 0.43,0.43 0 0 0 5.84,4.78 0.42,0.42 0 0 0 5.9,4.54 C 5.9,4.37 5.83,4.24 5.72,4.16 5.6,4.08 5.41,4.03 5.14,4.03 Z M 2.02,4.05 1.32,5.97 h 0.5 L 1.94,5.61 h 0.77 l 0.12,0.36 h 0.5 L 2.6,4.05 Z M 4.9,4.37 h 0.27 c 0.08,0 0.13,0.02 0.17,0.05 0.04,0.03 0.07,0.08 0.07,0.15 A 0.2,0.2 0 0 1 5.35,4.72 0.28,0.28 0 0 1 5.17,4.77 H 4.89 Z M 2.33,4.5 2.58,5.25 H 2.06 Z M 4.9,5.11 h 0.29 c 0.09,0 0.16,0.02 0.22,0.07 0.05,0.04 0.08,0.1 0.08,0.18 0,0.09 -0.03,0.15 -0.08,0.19 A 0.34,0.34 0 0 1 5.19,5.61 h -0.3 z"
     id="path9"
     inkscape:connector-curvature="0"
     style="fill:#1a1a1a" />
</svg>
